public/twitter.svg

<svg width="24" height="20" viewBox="0 0 24 20" fill="none" xmlns="http://www.w3.org/2000/svg">
<path d="M23.6425 2.93757C22.8075 3.30757 21.9105 3.55757 20.9675 3.67057C21.9405 3.08836 22.6685 2.17203 23.0155 1.09257C22.1014 1.63555 21.1009 2.01776 20.0575 2.22257C19.3559 1.47343 18.4266 0.976891 17.4138 0.810039C16.4011 0.643187 15.3616 0.815357 14.4568 1.29982C13.5519 1.78428 12.8323 2.55393 12.4097 3.48927C11.9871 4.42461 11.8851 5.47332 12.1195 6.47257C10.2672 6.37956 8.45515 5.89811 6.80095 5.05947C5.14674 4.22083 3.68736 3.04373 2.51752 1.60457C2.11752 2.29457 1.88752 3.09457 1.88752 3.94657C1.88708 4.71356 2.07596 5.46881 2.4374 6.1453C2.79885 6.82179 3.32168 7.3986 3.95952 7.82457C3.2198 7.80103 2.4964 7.60115 1.84952 7.24157V7.30156C1.84945 8.37731 2.22156 9.41994 2.90271 10.2526C3.58386 11.0852 4.53209 11.6565 5.58652 11.8696C4.90031 12.0553 4.18086 12.0826 3.48252 11.9496C3.78002 12.8752 4.35952 13.6846 5.13989 14.2645C5.92026 14.8444 6.86244 15.1657 7.83452 15.1836C6.18436 16.479 4.14641 17.1817 2.04852 17.1786C1.6769 17.1787 1.3056 17.157 0.936523 17.1136C3.066 18.4827 5.54486 19.2094 8.07652 19.2066C16.6465 19.2066 21.3315 12.1086 21.3315 5.95257C21.3315 5.75257 21.3265 5.55056 21.3175 5.35056C22.2288 4.69154 23.0154 3.87546 23.6405 2.94057L23.6425 2.93757Z" fill="#F1F5F8"/>
</svg>

<svg width="24" height="20" fill="none" xmlns="http://www.w3.org/2000/svg"><path d="M23.642 2.938c-.834.37-1.732.62-2.674.733a4.67 4.67 0 0 0 2.047-2.578 9.3 9.3 0 0 1-2.957 1.13 4.66 4.66 0 0 0-7.938 4.25 13.23 13.23 0 0 1-9.602-4.868 4.66 4.66 0 0 0 1.442 6.22 4.647 4.647 0 0 1-2.11-.583v.06a4.66 4.66 0 0 0 3.737 4.568 4.693 4.693 0 0 1-2.104.08 4.661 4.661 0 0 0 4.352 3.234 9.348 9.348 0 0 1-5.786 1.995 9.5 9.5 0 0 1-1.112-.065 13.176 13.176 0 0 0 7.14 2.093c8.57 0 13.254-7.098 13.254-13.254 0-.2-.005-.402-.014-.602a9.47 9.47 0 0 0 2.323-2.41l.002-.003Z" fill="#F1F5F8"/></svg>
